X:1
T:Quia vidisti me
T:Hans Leo Hassler
T:Quia vidisti me
T:Copyright © 2014 by CPDL.  This edition can be fully distributed, duplicated, performed, and recorded.
T:Copyright © 2014 by CPDL.  This edition can be fully distributed, duplicated, performed, and recorded.
T:Copyright © 2014 by CPDL.  This edition can be fully distributed, duplicated, performed, and recorded.
T:Copyright © 2014 by CPDL.  This edition can be fully distributed, duplicated, performed, and recorded.
T:Copyright © 2014 by CPDL.  This edition can be fully distributed, duplicated, performed, and recorded.
T:Copyright © 2014 by CPDL.  This edition can be fully distributed, duplicated, performed, and recorded.
T:Copyright © 2014 by CPDL.  This edition can be fully distributed, duplicated, performed, and recorded.
T:Copyright © 2014 by CPDL.  This edition can be fully distributed, duplicated, performed, and recorded.
T:Copyright © 2014 by CPDL.  This edition can be fully distributed, duplicated, performed, and recorded.
C:Hans Leo Hassler
Z:Copyright © 2014 by CPDL.  This edition can be fully distributed, duplicated, performed, and recorded.
%%score [ 1 2 3 4 ]
L:1/8
Q:1/2=112
M:4/2
K:G
V:1 treble nm="SOPRANO" snm="S."
V:2 treble nm="ALTO" snm="A."
V:3 treble-8 transpose=-12 nm="TENOR" snm="T."
V:4 bass nm="BASS" snm="B."
V:1
 G8 D8- | D4 A4 d6 c2 | B4 A4 B4 G2 A2 | B2 c2 d2 A2 c8 | B4 (B8 A2 G2 | A8) B8 | z4 F4 B6 A2 | %7
w: Qui- a|_ vi- di- sti|me, Tho- ma, cre- *||di- di- * *|* sti,|vi- di- sti|
 G4 F4 G8 | z8 z4 A4- | A4 D8 D4 | d6 c2 B4 A4 | B4 G4 B4 d4- | (d4 ^c4) d4 A4 | d6 =c2 B4 B4- | %14
w: me, Tho- ma,|qui-|* a vi-|di- sti me, Tho-|ma, cre- di- di-|* * sti, vi-|di- sti me, Tho-|
 (B4 A2 G2 A2 B2 c4-) | c4 d4 c4 B4 | A2 G2 G8 F4 | G16 | z8 z4 A4 | B2 c2 d6 ^cB c4 | d8 z4 A4 | %21
w: |* ma, cre- di-|di- * * *|sti:|be-|a- * * * * *|ti, be-|
 F8 E8 | z4 E4 F2 G2 A4- | A2 ^GF G4 A8 | z4 A4 B4 d4 | =c8 B8 | z8 z4 D4 | F4 A4 G8 | F8 z4 A4 | %29
w: a- ti,|be- a- * *|* * * * ti,|qui cre- di-|de- runt,|qui|cre- di- de-|runt, et|
 (B2 A2 B2 c2 d4) d4 | c8 B8 | z4 G4 (A2 G2 A2 B2 | c4) c4 B8 | A8 z8 | z4 A4 B4 d4 | c8 B8- | %36
w: non _ _ _ _ vi-|de- runt,|et non _ _ _|_ vi- de-|runt,|qui cre- di-|de- runt,|
 B8 z8 | z4 A4 B4 d4 | (c8 B8) | A8 z8 | z4 G4 A4 c4 | B8 A8 | z4 D4 (E2 D2 E2 F2 | G4) B4 A6 GF | %44
w: _|qui cre- di-|de- *|runt,|qui cre- di-|de- runt,|et non _ _ _|_ vi- de- * *|
 E2 F2 G8 F4 | G4 d4 c4 A4 | B8 z8 | z4 A4 G4 E4 | F4 d6 B2 ^c4 | d8 z8 | z4 B4 c4 A4 | %51
w: |runt. Al- le- lu-|ia,|al- le- lu-|ia, al- le- lu-|ia,|al- le- lu-|
 B4 G6 E2 F4 | G4 d4 c4 A4 | B8 z8 | z4 A4 G4 E4 | F4 d6 B2 ^c4 | d8 z8 | z4 B4 c4 A4 | %58
w: ia, al- le- lu-|ia, al- le- lu-|ia,|al- le- lu-|ia, al- le- lu-|ia,|al- le- lu-|
 B4 G6 E2 F4 | G4 d2 c2 B2 A2 G2 F2 | E4 G4 G8 | G16 |] %62
w: ia, al- le- lu-|ia, al- * * * * *|* le- lu-|ia.|
V:2
 z16 | D8 G,8- | G,4 D4 G6 F2 | E4 D4 E4 C4 | D4 (G8 F2 E2 | F8) G4 G,4 | D6 C2 B,4 D4 | %7
w: |Qui- a|_ vi- di- sti|me, Tho- ma, cre-|di- di- * *|* sti, vi-|di- sti me, Tho-|
 E4 A,4 E4 E4- | (E4 D2 C2) D8 | z8 G8- | G4 D8 F4 | G6 F2 E4 F4 | E8 z4 D4- | D4 E4 D8- | %14
w: ma, cre- di- di-|* * * sti,|qui-|* a vi-|di- sti me, Tho-|ma, cre-|* di- di-|
 D8 D4 E4- | E4 G4 C4 G4 | (E8 D8) | B,8 z4 D4 | E2 F2 G6 FE F4 | G4 G4 E8 | F8 z8 | z4 D4 B,8 | %22
w: * sti, Tho-|* ma, cre- di-|di- *|sti: be-|a- * * * * *|ti, be- a-|ti,|be- a-|
 A,4 ^C4 D4 A,4 | B,8 A,8 | z16 | z4 A,4 B,4 D4 | C8 B,8 | z4 A,4 (B,2 A,2 B,2 C2 | D4) D4 E8 | %29
w: ti, qui cre- di-|de- runt,||qui cre- di-|de- runt,|et non _ _ _|_ vi- de-|
 D4 G4 F4 F4 | E8 D4 B,4 | E4 G4 F8 | E4 A,4 (D2 C2 D2 E2 | F4) F4 B,8 | ^C8 z4 D4 | %35
w: runt, qui cre- di-|de- runt, qui|cre- di- de-|runt, et non _ _ _|_ vi- de-|runt, et|
 (E2 D2 E2 F2 G4) G4 | F8 (E2 D2 B,2 C2 | D8) z4 B,4 | C4 E4 D8 | D4 A,4 (C2 B,2 C2 D2 | %40
w: non _ _ _ _ vi-|de- runt, _ _ _|_ qui|cre- di- de-|runt, et non _ _ _|
 E4) E4 C4 B,2 A,2 | D2 B,2 D8 ^C4 | D4 A,4 =C4 C4 | D8 C4 C4 | C4 D4 D8 | B,4 G4 E4 F4 | G8 z8 | %47
w: _ vi- de- * *||runt, qui cre- di-|de- runt, et|non vi- de-|runt. Al- le- lu-|ia,|
 z4 F4 (E2 D4) ^C2 | D4 F4 G4 E4 | D8 z8 | z4 G6 E2 F4 | G4 D4 E4 D4 | D4 G4 E4 F4 | G8 z8 | %54
w: al- le- * lu-|ia, al- le- lu-|ia,|al- le- lu-|ia, al- le- lu-|ia, al- le- lu-|ia,|
 z4 F4 (E2 D4) ^C2 | D4 F4 G4 E4 | D8 z8 | z4 G6 E2 F4 | G4 D4 E4 D4 | D4 B,4 D4 E2 F2 | %60
w: al- le- * lu-|ia, al- le- lu-|ia,|al- le- lu-|ia, al- le- lu-|ia, al- le- lu- *|
 G2 F2 E2 D2 C8 | B,16 |] %62
w: |ia.|
V:3
 z16 | z16 | z16 | z16 | G8 D8- | D4 A4 d6 c2 | B4 A4 B4 G2 A2 | B2 c2 d2 A2 c6 BA | G4 B4 A8- | %9
w: ||||Qui- a|_ vi- di- sti|me, Tho- ma, cre- *||* di- di-|
 A8 B8- | B8 d8 | G12 D4 | A6 G2 F4 F4- | F4 A4 F4 G4 | F8 F4 G4- | G4 B4 e4 d4 | (c6 B2 A8) | %17
w: * sti,|_ qui-|a vi-|di- sti me, Tho-|* ma, cre- di-|di- sti, Tho-|* ma, cre- di-|di- * *|
 G4 G4 B2 c2 d4- | d2 ^cB c4 d4 d4 | B8 A4 A4 | F8 E4 E4 | F2 G2 A6 ^GF G4 | A8 z8 | z4 E4 F4 A4 | %24
w: sti: be- a- * *|* * * * ti, be-|a- ti, be-|a- ti, be-|a- * * * * *|ti,|qui cre- di-|
 F8 D4 D4 | (E2 D2 E2 F2 G4) B4 | A8 G8 | z8 z4 G4 | (A2 G2 A2 B2 c4) c4 | B12 A4 | z4 G4 B4 d4 | %31
w: de- runt, et|non _ _ _ _ vi-|de- runt,|et|non _ _ _ _ vi-|de- runt,|qui cre- di-|
 c4 B4 z4 D4 | (E2 D2 E2 F2 G4) G4 | F2 G2 A8 ^G4 | A4 E4 =G4 B4 | A8 G2 E2 e4- | e4 d4 c4 G4 | %37
w: de- runt, et|non _ _ _ _ vi-|de- * * *|runt, qui cre- di-|de- runt, et non|_ vi- de- *|
 B2 A2 A6 ^G2 G2 FG | A8 F4 D4 | (F2 E2 F2 G2 A4) A4 | G2 E2 G8 F4 | G6 F2 E8 | D4 F4 G4 c4 | %43
w: |* runt, et|non _ _ _ _ vi-|de- * * *||runt, qui cre- di-|
 (B3 A G4) E4 A4 | G4 B4 A8 | G8 z8 | z4 d4 c4 A4 | B4 d4 B4 A4 | A8 z8 | z4 d6 B2 ^c4 | %50
w: de- * * runt, et|non vi- de-|runt.|Al- le- lu-|ia, al- le- lu-|ia,|al- le- lu-|
 d4 d4 e4 d4 | d4 B4 A4 A4 | B8 z8 | z4 d4 c4 A4 | B4 d4 B4 A4 | A8 z8 | z4 d6 B2 ^c4 | %57
w: ia, al- le- lu-|ia, al- le- lu-|ia,|al- le- lu-|ia, al- le- lu-|ia,|al- le- lu-|
 d4 d4 e4 d4 | d4 B4 A4 A4 | (G6 A2 B4) c4- | c4 c4 e8 | d16 |] %62
w: ia, al- le- lu-|ia, al- le- lu-|ia, _ _ al-|* le- lu-|ia.|
V:4
 z16 | z16 | z16 | z16 | z16 | D,8 G,,8- | G,,4 D,4 G,6 F,2 | E,4 D,4 E,4 C,4 | E,4 (G,8 F,2 E,2 | %9
w: |||||Qui- a|_ vi- di- sti|me, Tho- ma, cre-|di- di- * *|
 F,8) G,8 | G,8 D,8 | z16 | z4 A,,4 D,6 C,2 | B,,4 A,,4 B,,4 G,,2 A,,2 | B,,2 C,2 D,8 C,2 B,,2 | %15
w: * sti,|qui- a||vi- di- sti|me, Tho- ma, cre- *||
 C,4 G,,4 (A,,4 B,,4 | C,8 D,8) | G,,8 G,8 | E,8 D,8 | z8 z4 A,,4 | B,,2 C,2 D,6 ^C,B,, C,4 | %21
w: * di- di- *||sti: be-|a- ti,|be-|a- * * * * *|
 D,8 E,8 | F,4 A,4 F,8 | E,8 z4 A,,4 | B,,4 D,4 (B,,8 | A,,8) G,,8 | z4 A,,4 (B,,2 A,,2 B,,2 C,2 | %27
w: ti, qui|cre- di- de-|runt, qui|cre- di- de-|* runt,|et non _ _ _|
 D,4) F,4 E,8 | D,8 z8 | z8 z4 D,4 | (E,2 D,2 E,2 F,2 G,4) G,4 | E,8 D,8 | %32
w: _ vi- de-|runt,|et|non _ _ _ _ vi-|de- runt,|
 A,,8 (B,,2 A,,2 B,,2 C,2 | D,4) D,4 E,8 | A,,8 z8 | z16 | B,,8 C,4 E,4 | D,8 B,,8 | %38
w: et non _ _ _|_ vi- de-|runt,||qui cre- di-|de- runt,|
 z4 A,,4 (B,,2 A,,2 B,,2 C,2 | D,4) D,4 (A,,6 B,,2 | C,6 B,,2 A,,8) | G,,8 A,,8 | %42
w: et non _ _ _|_ vi- de- *||runt, qui|
 B,,4 D,4 =C,4 A,,4 | z4 G,,4 (A,,2 G,,2 A,,2 B,,2 | C,4) G,,4 D,8 | G,,8 z8 | z4 G,4 E,4 F,4 | %47
w: cre- di- de- runt,|et non _ _ _|_ vi- de-|runt.|Al- le- lu-|
 G,4 D,4 G,4 A,4 | D,8 z8 | z4 D,4 G,4 E,4 | D,4 G,4 C,4 D,4 | G,,4 B,,4 C,4 D,4 | G,,8 z8 | %53
w: ia, al- le- lu-|ia,|al- le- lu-|ia, al- le- lu-|ia, al- le- lu-|ia,|
 z4 G,4 E,4 F,4 | G,4 D,4 G,4 A,4 | D,8 z8 | z4 D,4 G,4 E,4 | D,4 G,4 C,4 D,4 | G,,4 B,,4 C,4 D,4 | %59
w: al- le- lu-|ia, al- le- lu-|ia,|al- le- lu-|ia, al- le- lu-|ia, al- le- lu-|
 G,,4 (G,6 F,2 E,2 D,2 | C,4) C,4 C,8 | G,,16 |] %62
w: ia, al- * * *|* le- lu-|ia,|

